X:1
T:Weihnachtslieder in C-Dur und a-Moll
T:Weihnachtslieder in C-Dur und a-Moll
T:Stand: 2018-12-27
T:Stand: 2018-12-27
T:Stand: 2018-12-27
T:Stand: 2018-12-27
Z:Stand: 2018-12-27
L:1/8
M:4/4
K:C
V:1 treble nm="Piano" snm="Pno."
V:1
"^Alle Jahre wieder""C" G3 A G2 F2 |"C" E4"G" D4 |"C" C2 (DE)"F" F2"C" E2 |"G" D6 z2 | %4
w: Al- le Jah- re|wie- der|kommt das _ Chris- tus-|kind.|
w: Kehrt mit sei- nem|Se- gen|ein in _ je- des|Haus,|
w: Ist auch mir zur|Sei- te|still und _ un- er-|kannt,|
w: ||||
w: ||||
w: ||||
"C" E2 G2"F" A2"C" G2 |"F" c4 (B2 A2) |"C" G2 (FE)"G" F2 G2 |"C" E6 z2 |] %8
w: auf die Er- de|nie- der, _|wo wir _ Men- schen|sind.|
w: geht auf al- len|We- gen _|mit uns _ ein und|aus.|
w: dass es treu mich|lei- te _|an der _ lie- ben|Hand.|
w: ||||
w: ||||
w: ||||
[M:3/4]"^Was soll das bedeuten?" (CD) |"C" E2 E2 (DE) |"G7" F2 F2 (EF) |"C" G2 G2 (FE) | %12
w: Was _|soll das be- *|deu- ten? Es _|ta- get ja _|
w: Treibt zu-|sam- men, treibt zu-|sam- men die _|Schäf- lein für- *|
w: Ich _|hab nur ein _|we- nig von _|wei- tem ge- *|
w: ||||
w: ||||
w: ||||
"G" D4 (CD) |"C" E2 E2 (DE) |"G7" F2 F2 (EF) |"C" G2 G2 (FE) |"G" D4 z2 |"Dm" D2 (DC)"G7" (DF) | %18
w: schon, ich _|weiß wohl es _|geht erst um _|Mit- ter- nacht _|rum.|Schaut nur _ da- *|
w: bass, treibt zu-|sam- men, treibt zu-|sam- men, dort _|zeig ich euch _|was.|Dort in _ dem _|
w: guckt, da _|hat mir mein _|Herz schon vor _|Freu- den ge- *|hupft:|Ein schö- * nes _|
w: ||||||
w: ||||||
w: ||||||
"C" E6 |"C" E2 (ED) (EF) |"G" D4 (GF) |"C" E2 G2 (FE) |"Dm" (DE) F2 (ED) |"C" (CD) E2"G7" D2 | %24
w: her!|Schaut nur _ da- *|her! Wie _|glän- zen die _|Stern- * lein je _|län- * ger je|
w: Stall,|dort in _ dem _|Stall, wer- det|Wun- der- ling _|seh- * en, treibt zu-|sam- * men ein-|
w: Kind,|ein schö- * nes _|Kind liegt _|dort in der _|Krip- * pe bei _|E- * sel und|
w: ||||||
w: ||||||
w: ||||||
"C" C4 |][M:4/4]"^Freu dich, Erd und Sternenzelt""C" C2 D2 E2 F2 |"G" G2 G2"C" G4 |"F" F2 G2 A4 | %28
w: mehr.|Freu dich, Erd und|Ster- nen- zelt!|Hal- le- lu-|
w: mal.|Seht, der schön- sten|Ro- se Flor.|Hal- le- lu-|
w: Rind.|Er, das mensch ge-|word'- ne Wort,|Hal- le- lu-|
w: ||||
w: ||||
w: ||||
"C" G6 z2 |"C" G2 G2"F" F2 F2 |"C" E2 E2"G" D4 |"C" E2 F2"G" D4 |"C" C6 z2 |"C" E2 D2 E2 F2 | %34
w: ja!|Got- tes Sohn kam|in die Welt.|Hal- le- lu-|ja!|Uns zum Heil ge-|
w: ja!|Sprießt aus Jes- ses|Zweig em- por,|Hal- le- lu-|ja!||
w: ja!|Je- sus Chris- tus,|un- ser Hort,|Hal- le- lu-|ja!||
w: ||||||
w: ||||||
w: ||||||
"G" G4 D4 |"C" E2 D2 E2 F2 |"G" G4 D4 |"C" E4"F" A4 |"C" G2 E2"G" D4 |"C" C6 z2 |] %40
w: bo- ren,|ward er heut' ge-|bo- ren,|heu- te|uns ge- bo-|ren.|
w: ||||||
w: ||||||
w: ||||||
w: ||||||
w: ||||||
[M:4/4]"^Ihr Kinderlein, kommet" G2 |"C" G4 E2 G2 | G4 E2 G2 |"G7" F4 D2 F2 |"C" E6 G2 | G4 E2 G2 | %46
w: Ihr|Kin- der- lein,|kom- met, o|kom- met doch|all! Zur|Krip- pe her|
w: O|seht in der|Krip- pe im|nächt- li- chen|Stall, seht|hier bei des|
w: Da|liegt es, ihr|Kin- der, auf|Heu und auf|Stroh. Ma-|ri- a und|
w: ||||||
w: ||||||
w: ||||||
 G4 E2 G2 |"G7" F4 D2 F2 |"C" E6 E2 |"G" D4 D2 D2 |"G7" F4 F2 F2 |"C" E4 E2 E2 |"F" A6 A2 | %53
w: kom- met in|Beth- le- hems|Stall und|seht, was in|die- ser hoch-|hei- li- gen|Nacht der|
w: Licht- leins hell|glän- zen- dem|Strahl den|lieb- li- chen|Kna- ben, das|himm- li- sche|Kind, viel|
w: Jo- sef be-|trach- ten es|froh. Die|red- li- chen|Hir- ten knien|be- tend da-|vor, hoch|
w: |||||||
w: |||||||
w: |||||||
"C" G4"G" G2 G2 |"C" c4 G2 E2 |"G" G4"G7" F2 D2 |"C" C6 |] %57
w: Va- ter im|Him- mel für|Freu- de uns|macht!|
w: schö- ner und|hol- der als|En- ge- lein|sind.|
w: o- ben schwebt|ju- belnd der|En- ge- lein|Chor.|
w: ||||
w: ||||
w: ||||
[M:4/4]"^Vom Himmel hoch, da komm ich her""C" c2 |"G" B4"D" A4 |"G" B4"C" G4 |"F" A4"G" B4 | %61
w: Vom|Him- mel|hoch da|komm ich|
w: Euch|ist ein|Kind- lein|heut' ge-|
w: Es|ist der|Herr Christ,|un- ser|
w: ||||
w: ||||
w: ||||
"C" c4 z2"Am" c2 |"F" c4"C" G4 |"G" G4"Am" E4 |"C" G4"Dm" F4 |"E" E4 z2"Am" E2 |"F" A4"Dm" A4 | %67
w: her, ich|bring euch|gu- te|neu- e|Mär; der|gu- ten|
w: bor'n, von|ei- ner|Jung- frau|aus- er-|kor'n, ein|Kin- de-|
w: Gott, der|will euch|führn aus|al- ler|Not, er|will eu'r|
w: ||||||
w: ||||||
w: ||||||
"G" G4"E" B4 |"Am" c4"D" A4 |"G" G4 z2"Am" c2 |"Em" B4"F" A4 |"C" (G2 G2)"F" A4 | %72
w: Mär bring|ich so|viel, da-|von ich|sin- gen und|
w: lein so|zart und|fein, das|soll eu'r|Freud _ und|
w: Hei- land|sel- ber|sein, von|al- len|Sün- * den|
w: |||||
w: |||||
w: |||||
"Dm" (F2 E2)"G" D4 |"C" C6 |][M:3/4]"^Stille Nacht, heilige Nacht""C" (G3 A) G2 | E6 |"C" G3 A G2 | %77
w: sa- * gen|will.|Stil- * le|Nacht,|hei- li- ge|
w: Won- * ne|sein.|Stil- * le|Nacht,|hei- li- ge|
w: ma- * chen|rein.|Stil- * le|Nacht,|hei- li- ge|
w: |||||
w: |||||
w: |||||
 E6 |"G" d4 d2 | B6 |"C" c4 c2 | G6 |"F" A4 A2 | (c3 B) A2 |"C" G3 A G2 | E6 |"F" A4 A2 | %87
w: Nacht,|al- les|schläft,|ein- sam|wacht|nur das|trau- te hoch-|hei- li- ge|Paar,|hol- der|
w: Nacht,|Hir- ten|erst|kund- ge-|macht|durch der|En- gel Hal-|le- * lu-|ja,|tönt es|
w: Nacht,|Got- tes|Sohn,|o wie|lacht|Lieb aus|dei- * nem|gött- li- chen|Mund,|da uns|
w: ||||||||||
w: ||||||||||
w: ||||||||||
 (c3 B) A2 |"C" (G3 A) G2 | E6 |"G" d4 d2 |"G7" f3 d B2 |"C" (c6 | e6) |"C" (c2 G2) E2 | %95
w: Kna- be im|lo- cki- gen|Haar,|schlaf in|humm- li- scher|Ruh,|_|schlaf _ in|
w: laut _ von|fern _ und|nah:|Christ, der|Ret- ter ist|da!|_|Christ, _ der|
w: schlägt _ die|ret- ten- de|Stund,|Christ, in|dei- ner Ge-|burt,|_|Christ, _ in|
w: ||||||||
w: ||||||||
w: ||||||||
"G" G3 F D2 |"C" C6- | C6 |]:[M:4/4]"^Ich steh an deiner Krippen hier" E2 |"Am" A2 B2 c2 A2 | %100
w: himm- li- scher|Ruh.|_|1. Ich|steh an dei- ner|
w: Ret- ter ist|da!|_|ich|kom- me, bring und|
w: dei- ner Ge-|burt.|_|2. Da|ich noch nicht ge-|
w: |||und|hast mich dir zu|
w: |||3. Ich|lag in tief- ster|
w: |||die|Son- ne, die mir|
"G" G3 F"C" E2 G2 |"Am" C3 B,"F" C2 D2 |"E4" E4"E" E2 :|"G" G2 |"C" c2 G2"F" A2 G2 | %105
w: Krip- pen hier, o|Je- su, du mein|Le- ben;|Nimm|hin, es ist mein|
w: schen- ke dir, was|du mir hast ge-|ge- ben.|Eh|ich durch dei- ne|
w: bo- ren war, da|bist du mir ge-|bo- ren|O|Son- ne, die das|
w: ei- gen gar, eh|ich dich kannt, er-|ko- ren.|||
w: To- des- nacht, du|wa- rest mei- ne|Son- ne,|||
w: zu- ge- bracht Licht,|Le- ben, Freud und|Won- ne.|||
"Dm" F3 G"C" E2"G" G2 |"C" c2 G2"F" A2"Em" G2 |"Dm" F3 G"C" E2 E2 |"D" ^F2"E" ^G2"Am" (Ac)(BA) | %109
w: Geist und Sinn, Herz,|Seel und Mut, nimm|al- les hin und|lass dir's wohl- * ge- *|
w: Hand ge- macht, da|hast du schon bei|dir be- dacht, wie|du mein woll- * test _|
w: wer- te Licht des|Glau- bens in mir|zu- ge- richt', wie|schön sind dei- * ne _|
w: ||||
w: ||||
w: ||||
"E7" ^G4"Am" A2 |][M:4/4]"^O du fröhliche""C" G4"F" A4 |"C" G3 F (E2"G7" F2) |"C" G4"F" A4 | %113
w: fal- len.|O du|fröh- li- che, _|o du|
w: wer- den.||||
w: Strah- len!||||
w: ||||
w: ||||
w: ||||
"C" G3 F (E2"G7" F2) |"C" G4"G" G4 |"D" A4 B2"C" c2 |"G" B4"D" A4 |"G" G6 z2 |"G" (D3 E) D2 E2 | %119
w: se- li- ge, _|gna- den-|brin- gen- de|Weih- nachts-|zeit!|1. Welt _ ging ver-|
w: |||||2. Christ _ ist er-|
w: |||||3. Himm- * li- sche|
w: ||||||
w: ||||||
w: ||||||
 (F3 G) F4 |"C" (E3 F) E2 F2 | (G3 A) G4 |"Am" (c2"Em" B2"F" A2)"C" G2 |"F" c2 A2"G" G2"G7" F2 | %124
w: lo- * ren,|Christ _ ist ge-|bo- * ren:|Freu- * * e,|freu- e dich, o|
w: schie- * nen,|uns _ zu ver-|süh- * nen:|||
w: Hee- * re,|jauch- * zen Dir|Eh- * re:|||
w: |||||
w: |||||
w: |||||
"C" E4"G" D4 |"C" C8 |] %126
w: Chris- ten-|heit!|
w: ||
w: ||
w: ||
w: ||
w: ||

